; generated by Slic3r 1.3.0 on 2019-07-02 at 13:59:44

; external perimeters extrusion width = 0.66mm (3.57mm^3/s)
; perimeters extrusion width = 0.84mm (6.98mm^3/s)
; infill extrusion width = 0.75mm (6.17mm^3/s)
; solid infill extrusion width = 0.84mm (4.65mm^3/s)
; top infill extrusion width = 0.84mm (4.65mm^3/s)
; support material extrusion width = 0.66mm (5.36mm^3/s)

; external perimeters extrusion width = 0.44mm (2.25mm^3/s)
; perimeters extrusion width = 0.48mm (3.77mm^3/s)
; infill extrusion width = 0.48mm (3.77mm^3/s)
; solid infill extrusion width = 0.48mm (2.51mm^3/s)
; top infill extrusion width = 0.48mm (2.51mm^3/s)
; support material extrusion width = 0.66mm (5.36mm^3/s)

M107
M104 S220 T0 ; set temperature
M104 S220 T1 ; set temperature
G28 ; home all axes
G1 Z5 F5000 ; lift nozzle

; Filament gcode

; Filament gcode

M109 S220 T0 ; set temperature and wait for it to be reached
M109 S220 T1 ; set temperature and wait for it to be reached
G21 ; set units to millimeters
G90 ; use absolute coordinates
M82 ; use absolute distances for extrusion
G92 E0
T0
G92 E0
G1 Z0.300 F2400.000
G1 E-10.00000 F2400.00000
G92 E0
T1
G92 E0
G1 Z0.300 F2400.000
M104 S215 T0 ; set temperature
M104 S215 T1 ; set temperature
G1 Z0.900 F2400.000
G1 E-10.00000 F2400.00000
G92 E0
T0
G92 E0
G1 X278.655 Y87.530 F2400.000
G1 E10.00000 F2400.00000

G1 F1800
G1 X278.655 Y180.889 E23.27907
G1 X274.921 Y180.889 E23.81014
G1 X274.921 Y91.897 E36.46798
G1 X275.035 Y90.447 E36.67488
G1 X275.366 Y89.070 E36.87635
G1 X275.908 Y87.761 E37.07782
G1 X276.648 Y86.554 E37.27929
G1 X277.568 Y85.476 E37.48075
G1 X278.645 Y84.557 E37.68222
G1 X279.853 Y83.816 E37.88369
G1 X281.161 Y83.274 E38.08515
G1 X282.539 Y82.944 E38.28662
G1 X283.989 Y82.830 E38.49353
G1 X313.913 Y82.830 E42.74978
G1 X315.340 Y82.942 E42.95338
G1 X316.741 Y83.275 E43.15828
G1 X318.049 Y83.816 E43.35958
G1 X319.256 Y84.557 E43.56105
G1 X320.333 Y85.476 E43.76252
G1 X321.253 Y86.554 E43.96398
G1 X321.993 Y87.761 E44.16545
G1 X322.535 Y89.070 E44.36692
G1 X322.866 Y90.447 E44.56838
G1 X322.980 Y91.897 E44.77529
G1 X322.980 Y180.889 E57.43313
G1 X320.554 Y180.889 E57.77829
G1 X320.554 Y87.530 E71.05736
G1 X278.745 Y87.530 E77.00408

G1 X279.295 Y88.170 F2400.000

G1 F1800
G1 X279.295 Y181.529 E90.28315
G1 X274.281 Y181.529 E90.99643
G1 X274.281 Y91.872 E103.74895
G1 X274.401 Y90.347 E103.96661
G1 X274.755 Y88.871 E104.18241
G1 X275.336 Y87.470 E104.39822
G1 X276.128 Y86.176 E104.61403
G1 X277.114 Y85.022 E104.82984
G1 X278.267 Y84.037 E105.04564
G1 X279.561 Y83.244 E105.26145
G1 X280.963 Y82.663 E105.47726
G1 X282.438 Y82.309 E105.69306
G1 X283.964 Y82.189 E105.91072
G1 X313.938 Y82.189 E110.17414
G1 X315.439 Y82.307 E110.38837
G1 X316.939 Y82.664 E110.60761
G1 X318.340 Y83.244 E110.82336
G1 X319.634 Y84.037 E111.03917
G1 X320.788 Y85.022 E111.25498
G1 X321.773 Y86.176 E111.47079
G1 X322.566 Y87.470 E111.68659
G1 X323.146 Y88.871 E111.90240
G1 X323.501 Y90.347 E112.11821
G1 X323.621 Y91.872 E112.33586
G1 X323.621 Y181.529 E125.08839
G1 X319.913 Y181.529 E125.61576
G1 X319.913 Y88.170 E138.89482
G1 X279.385 Y88.170 E144.65934

G1 E142.65934 F2400.00000
G92 E0
G1 X320.112 Y86.239 F2400.000
G1 E2.00000 F2400.00000

G1 F1800
G1 X319.571 Y85.698 E2.10900
G1 X318.578 Y84.849 E2.29512
G1 X317.463 Y84.166 E2.48142
G1 X316.806 Y83.894 E2.58279
G1 X320.018 Y87.106 E3.23012
G1 X319.057 Y87.106 E3.36713
G1 X315.418 Y83.467 E4.10046
G1 X314.962 Y83.359 E4.16726
G1 X314.296 Y83.307 E4.26249
G1 X318.095 Y87.106 E5.02822
G1 X317.134 Y87.106 E5.16523
G1 X313.281 Y83.253 E5.94175
G1 X312.319 Y83.253 E6.07876
G1 X316.172 Y87.106 E6.85528
G1 X315.211 Y87.106 E6.99229
G1 X311.358 Y83.253 E7.76881
G1 X310.396 Y83.253 E7.90583
G1 X314.249 Y87.106 E8.68234
G1 X313.288 Y87.106 E8.81936
G1 X309.435 Y83.253 E9.59587
G1 X308.473 Y83.253 E9.73289
G1 X312.326 Y87.106 E10.50940
G1 X311.365 Y87.106 E10.64642
G1 X307.512 Y83.253 E11.42293
G1 X306.550 Y83.253 E11.55995
G1 X310.403 Y87.106 E12.33646
G1 X309.442 Y87.106 E12.47348
G1 X305.589 Y83.253 E13.24999
G1 X304.627 Y83.253 E13.38701
G1 X308.481 Y87.106 E14.16352
G1 X307.519 Y87.106 E14.30054
G1 X303.666 Y83.253 E15.07705
G1 X302.704 Y83.253 E15.21407
G1 X306.558 Y87.106 E15.99058
G1 X305.596 Y87.106 E16.12760
G1 X301.743 Y83.253 E16.90412
G1 X300.781 Y83.253 E17.04113
G1 X304.635 Y87.106 E17.81765
G1 X303.673 Y87.106 E17.95466
G1 X299.820 Y83.253 E18.73118
G1 X298.858 Y83.253 E18.86819
G1 X302.712 Y87.106 E19.64471
G1 X301.750 Y87.106 E19.78172
G1 X297.897 Y83.253 E20.55824
G1 X296.936 Y83.253 E20.69526
G1 X300.789 Y87.106 E21.47177
G1 X299.827 Y87.106 E21.60879
G1 X295.974 Y83.253 E22.38530
G1 X295.013 Y83.253 E22.52232
G1 X298.866 Y87.106 E23.29883
G1 X297.904 Y87.106 E23.43585
G1 X294.051 Y83.253 E24.21236
G1 X293.090 Y83.253 E24.34938
G1 X296.943 Y87.106 E25.12589
G1 X295.981 Y87.106 E25.26291
G1 X292.128 Y83.253 E26.03942
G1 X291.167 Y83.253 E26.17644
G1 X295.020 Y87.106 E26.95295
G1 X294.058 Y87.106 E27.08997
G1 X290.205 Y83.253 E27.86648
G1 X289.244 Y83.253 E28.00350
G1 X293.097 Y87.106 E28.78001
G1 X292.135 Y87.106 E28.91703
G1 X288.282 Y83.253 E29.69354
G1 X287.321 Y83.253 E29.83056
G1 X291.174 Y87.106 E30.60708
G1 X290.212 Y87.106 E30.74409
G1 X286.359 Y83.253 E31.52061
G1 X285.398 Y83.253 E31.65762
G1 X289.251 Y87.106 E32.43414
G1 X288.289 Y87.106 E32.57115
G1 X284.436 Y83.253 E33.34767
G1 X283.747 Y83.253 E33.44594
G1 X283.494 Y83.273 E33.48197
G1 X287.328 Y87.106 E34.25448
G1 X286.366 Y87.106 E34.39150
G1 X282.603 Y83.343 E35.14988
G1 X282.378 Y83.361 E35.18208
G1 X281.798 Y83.500 E35.26699
G1 X285.405 Y87.106 E35.99376
G1 X284.443 Y87.106 E36.13078
G1 X281.033 Y83.696 E36.81797
G1 X280.354 Y83.978 E36.92283
G1 X283.482 Y87.106 E37.55327
G1 X282.520 Y87.106 E37.69028
G1 X279.701 Y84.287 E38.25837
G1 X279.105 Y84.653 E38.35801
G1 X281.559 Y87.106 E38.85247
G1 X280.597 Y87.106 E38.98949
G1 X278.545 Y85.054 E39.40312
G1 X278.026 Y85.497 E39.50030
G1 X279.636 Y87.106 E39.82467
G1 X278.674 Y87.106 E39.96168
G1 X277.549 Y85.981 E40.18849
G1 X277.106 Y86.499 E40.28567
G1 X278.231 Y87.625 E40.51248
G1 X278.231 Y88.586 E40.64950
G1 X276.712 Y87.067 E40.95576
G1 X276.346 Y87.663 E41.05539
G1 X278.231 Y89.548 E41.43528
G1 X278.231 Y90.509 E41.57229
G1 X276.045 Y88.322 E42.01302
G1 X275.763 Y89.002 E42.11788
G1 X278.231 Y91.471 E42.61536
G1 X278.231 Y92.432 E42.75238
G1 X275.575 Y89.776 E43.28773
G1 X275.452 Y90.286 E43.36254
G1 X275.428 Y90.591 E43.40607
G1 X278.231 Y93.394 E43.97095
G1 X278.231 Y94.355 E44.10797
G1 X275.358 Y91.482 E44.68698
G1 X275.345 Y92.430 E44.82208
G1 X278.231 Y95.317 E45.40383
G1 X278.231 Y96.278 E45.54085
G1 X275.345 Y93.392 E46.12261
G1 X275.345 Y94.353 E46.25962
G1 X278.231 Y97.240 E46.84138
G1 X278.231 Y98.201 E46.97840
G1 X275.345 Y95.315 E47.56015
G1 X275.345 Y96.276 E47.69717
G1 X278.231 Y99.163 E48.27893
G1 X278.231 Y100.124 E48.41594
G1 X275.345 Y97.238 E48.99770
G1 X275.345 Y98.199 E49.13472
G1 X278.231 Y101.086 E49.71647
G1 X278.231 Y102.047 E49.85349
G1 X275.345 Y99.161 E50.43525
G1 X275.345 Y100.122 E50.57226
G1 X278.231 Y103.009 E51.15402
G1 X278.231 Y103.970 E51.29104
G1 X275.345 Y101.084 E51.87280
G1 X275.345 Y102.045 E52.00981
G1 X278.231 Y104.932 E52.59157
G1 X278.231 Y105.893 E52.72859
G1 X275.345 Y103.007 E53.31034
G1 X275.345 Y103.968 E53.44736
G1 X278.231 Y106.855 E54.02912
G1 X278.231 Y107.816 E54.16613
G1 X275.345 Y104.929 E54.74789
G1 X275.345 Y105.891 E54.88491
G1 X278.231 Y108.778 E55.46666
G1 X278.231 Y109.739 E55.60368
G1 X275.345 Y106.852 E56.18544
G1 X275.345 Y107.814 E56.32245
G1 X278.231 Y110.701 E56.90421
G1 X278.231 Y111.662 E57.04123
G1 X275.345 Y108.775 E57.62298
G1 X275.345 Y109.737 E57.76000
G1 X278.231 Y112.624 E58.34176
G1 X278.231 Y113.585 E58.47877
G1 X275.345 Y110.698 E59.06053
G1 X275.345 Y111.660 E59.19755
G1 X278.231 Y114.547 E59.77930
G1 X278.231 Y115.508 E59.91632
G1 X275.345 Y112.621 E60.49808
G1 X275.345 Y113.583 E60.63509
G1 X278.231 Y116.470 E61.21685
G1 X278.231 Y117.431 E61.35387
G1 X275.345 Y114.544 E61.93562
G1 X275.345 Y115.506 E62.07264
G1 X278.231 Y118.393 E62.65440
G1 X278.231 Y119.354 E62.79141
G1 X275.345 Y116.467 E63.37317
G1 X275.345 Y117.429 E63.51019
G1 X278.231 Y120.316 E64.09195
G1 X278.231 Y121.277 E64.22896
G1 X275.345 Y118.390 E64.81072
G1 X275.345 Y119.352 E64.94774
G1 X278.231 Y122.239 E65.52949
G1 X278.231 Y123.200 E65.66651
G1 X275.345 Y120.313 E66.24827
G1 X275.345 Y121.275 E66.38528
G1 X278.231 Y124.162 E66.96704
G1 X278.231 Y125.123 E67.10406
G1 X275.345 Y122.236 E67.68581
G1 X275.345 Y123.198 E67.82283
G1 X278.231 Y126.084 E68.40459
G1 X278.231 Y127.046 E68.54160
G1 X275.345 Y124.159 E69.12336
G1 X275.345 Y125.121 E69.26038
G1 X278.231 Y128.007 E69.84213
G1 X278.231 Y128.969 E69.97915
G1 X275.345 Y126.082 E70.56091
G1 X275.345 Y127.044 E70.69792
G1 X278.231 Y129.930 E71.27968
G1 X278.231 Y130.892 E71.41670
G1 X275.345 Y128.005 E71.99845
G1 X275.345 Y128.967 E72.13547
G1 X278.231 Y131.853 E72.71723
G1 X278.231 Y132.815 E72.85424
G1 X275.345 Y129.928 E73.43600
G1 X275.345 Y130.890 E73.57302
G1 X278.231 Y133.776 E74.15477
G1 X278.231 Y134.738 E74.29179
G1 X275.345 Y131.851 E74.87354
G1 X275.345 Y132.813 E75.01056
G1 X278.231 Y135.699 E75.59232
G1 X278.231 Y136.661 E75.72933
G1 X275.345 Y133.774 E76.31109
G1 X275.345 Y134.736 E76.44811
G1 X278.231 Y137.622 E77.02986
G1 X278.231 Y138.584 E77.16688
G1 X275.345 Y135.697 E77.74864
G1 X275.345 Y136.659 E77.88565
G1 X278.231 Y139.545 E78.46741
G1 X278.231 Y140.507 E78.60443
G1 X275.345 Y137.620 E79.18618
G1 X275.345 Y138.582 E79.32320
G1 X278.231 Y141.468 E79.90496
G1 X278.231 Y142.430 E80.04197
G1 X275.345 Y139.543 E80.62373
G1 X275.345 Y140.505 E80.76075
G1 X278.231 Y143.391 E81.34250
G1 X278.231 Y144.353 E81.47952
G1 X275.345 Y141.466 E82.06127
G1 X275.345 Y142.428 E82.19829
G1 X278.231 Y145.314 E82.78005
G1 X278.231 Y146.276 E82.91706
G1 X275.345 Y143.389 E83.49882
G1 X275.345 Y144.351 E83.63584
G1 X278.231 Y147.237 E84.21759
G1 X278.231 Y148.199 E84.35461
G1 X275.345 Y145.312 E84.93637
G1 X275.345 Y146.274 E85.07338
G1 X278.231 Y149.160 E85.65514
G1 X278.231 Y150.122 E85.79216
G1 X275.345 Y147.235 E86.37391
G1 X275.345 Y148.197 E86.51093
G1 X278.231 Y151.083 E87.09269
G1 X278.231 Y152.045 E87.22970
G1 X275.345 Y149.158 E87.81146
G1 X275.345 Y150.120 E87.94848
G1 X278.231 Y153.006 E88.53023
G1 X278.231 Y153.968 E88.66725
G1 X275.345 Y151.081 E89.24901
G1 X275.345 Y152.043 E89.38602
G1 X278.231 Y154.929 E89.96778
G1 X278.231 Y155.891 E90.10480
G1 X275.345 Y153.004 E90.68655
G1 X275.345 Y153.966 E90.82357
G1 X278.231 Y156.852 E91.40532
G1 X278.231 Y157.814 E91.54234
G1 X275.345 Y154.927 E92.12410
G1 X275.345 Y155.889 E92.26111
G1 X278.231 Y158.775 E92.84287
G1 X278.231 Y159.737 E92.97989
G1 X275.345 Y156.850 E93.56164
G1 X275.345 Y157.812 E93.69866
G1 X278.231 Y160.698 E94.28042
G1 X278.231 Y161.660 E94.41743
G1 X275.345 Y158.773 E94.99919
G1 X275.345 Y159.734 E95.13621
G1 X278.231 Y162.621 E95.71796
G1 X278.231 Y163.583 E95.85498
G1 X275.345 Y160.696 E96.43674
G1 X275.345 Y161.657 E96.57375
G1 X278.231 Y164.544 E97.15551
G1 X278.231 Y165.506 E97.29253
G1 X275.345 Y162.619 E97.87428
G1 X275.345 Y163.580 E98.01130
G1 X278.231 Y166.467 E98.59306
G1 X278.231 Y167.429 E98.73007
G1 X275.345 Y164.542 E99.31183
G1 X275.345 Y165.503 E99.44884
G1 X278.231 Y168.390 E100.03060
G1 X278.231 Y169.352 E100.16762
G1 X275.345 Y166.465 E100.74937
G1 X275.345 Y167.426 E100.88639
G1 X278.231 Y170.313 E101.46815
G1 X278.231 Y171.275 E101.60516
G1 X275.345 Y168.388 E102.18692
G1 X275.345 Y169.349 E102.32394
G1 X278.231 Y172.236 E102.90569
G1 X278.231 Y173.198 E103.04271
G1 X275.345 Y170.311 E103.62447
G1 X275.345 Y171.272 E103.76148
G1 X278.231 Y174.159 E104.34324
G1 X278.231 Y175.121 E104.48026
G1 X275.345 Y172.234 E105.06201
G1 X275.345 Y173.195 E105.19903
G1 X278.231 Y176.082 E105.78079
G1 X278.231 Y177.044 E105.91780
G1 X275.345 Y174.157 E106.49956
G1 X275.345 Y175.118 E106.63658
G1 X278.231 Y178.005 E107.21833
G1 X278.231 Y178.967 E107.35535
G1 X275.345 Y176.080 E107.93711
G1 X275.345 Y177.041 E108.07413
G1 X278.231 Y179.928 E108.65588
G1 X278.231 Y180.465 E108.73243
G1 X277.807 Y180.465 E108.79290
G1 X275.345 Y178.003 E109.28914
G1 X275.345 Y178.964 E109.42615
G1 X276.846 Y180.465 E109.72862
G1 X275.884 Y180.465 E109.86563
G1 X275.345 Y179.926 E109.97433

G1 E107.97433 F2400.00000
G92 E0
G1 X320.977 Y179.926 F2400.000
G1 E2.00000 F2400.00000

G1 F1800
G1 X321.516 Y180.465 E2.10869
G1 X322.478 Y180.465 E2.24574
G1 X320.977 Y178.964 E2.54824
G1 X320.977 Y178.002 E2.68529
G1 X322.557 Y179.582 E3.00364
G1 X322.557 Y178.620 E3.14069
G1 X320.977 Y177.041 E3.45904
G1 X320.977 Y176.079 E3.59609
G1 X322.557 Y177.659 E3.91444
G1 X322.557 Y176.697 E4.05149
G1 X320.977 Y175.117 E4.36984
G1 X320.977 Y174.155 E4.50689
G1 X322.557 Y175.735 E4.82524
G1 X322.557 Y174.773 E4.96229
G1 X320.977 Y173.194 E5.28064
G1 X320.977 Y172.232 E5.41769
G1 X322.557 Y173.812 E5.73604
G1 X322.557 Y172.850 E5.87309
G1 X320.977 Y171.270 E6.19144
G1 X320.977 Y170.309 E6.32849
G1 X322.557 Y171.888 E6.64684
G1 X322.557 Y170.926 E6.78389
G1 X320.977 Y169.347 E7.10223
G1 X320.977 Y168.385 E7.23929
G1 X322.557 Y169.965 E7.55763
G1 X322.557 Y169.003 E7.69468
G1 X320.977 Y167.423 E8.01303
G1 X320.977 Y166.462 E8.15008
G1 X322.557 Y168.041 E8.46843
G1 X322.557 Y167.080 E8.60548
G1 X320.977 Y165.500 E8.92383
G1 X320.977 Y164.538 E9.06088
G1 X322.557 Y166.118 E9.37923
G1 X322.557 Y165.156 E9.51628
G1 X320.977 Y163.576 E9.83463
G1 X320.977 Y162.615 E9.97168
G1 X322.557 Y164.194 E10.29003
G1 X322.557 Y163.233 E10.42708
G1 X320.977 Y161.653 E10.74543
G1 X320.977 Y160.691 E10.88248
G1 X322.557 Y162.271 E11.20083
G1 X322.557 Y161.309 E11.33788
G1 X320.977 Y159.729 E11.65623
G1 X320.977 Y158.768 E11.79328
G1 X322.557 Y160.347 E12.11163
G1 X322.557 Y159.386 E12.24868
G1 X320.977 Y157.806 E12.56702
G1 X320.977 Y156.844 E12.70408
G1 X322.557 Y158.424 E13.02242
G1 X322.557 Y157.462 E13.15948
G1 X320.977 Y155.883 E13.47782
G1 X320.977 Y154.921 E13.61488
G1 X322.557 Y156.500 E13.93322
G1 X322.557 Y155.539 E14.07028
G1 X320.977 Y153.959 E14.38862
G1 X320.977 Y152.997 E14.52567
G1 X322.557 Y154.577 E14.84402
G1 X322.557 Y153.615 E14.98107
G1 X320.977 Y152.036 E15.29942
G1 X320.977 Y151.074 E15.43647
G1 X322.557 Y152.654 E15.75482
G1 X322.557 Y151.692 E15.89187
G1 X320.977 Y150.112 E16.21022
G1 X320.977 Y149.150 E16.34727
G1 X322.557 Y150.730 E16.66562
G1 X322.557 Y149.768 E16.80267
G1 X320.977 Y148.189 E17.12102
G1 X320.977 Y147.227 E17.25807
G1 X322.557 Y148.807 E17.57642
G1 X322.557 Y147.845 E17.71347
G1 X320.977 Y146.265 E18.03182
G1 X320.977 Y145.304 E18.16887
G1 X322.557 Y146.883 E18.48722
G1 X322.557 Y145.921 E18.62427
G1 X320.977 Y144.342 E18.94262
G1 X320.977 Y143.380 E19.07967
G1 X322.557 Y144.960 E19.39801
G1 X322.557 Y143.998 E19.53506
G1 X320.977 Y142.418 E19.85341
G1 X320.977 Y141.457 E19.99046
G1 X322.557 Y143.036 E20.30881
G1 X322.557 Y142.074 E20.44586
G1 X320.977 Y140.495 E20.76421
G1 X320.977 Y139.533 E20.90126
G1 X322.557 Y141.113 E21.21961
G1 X322.557 Y140.151 E21.35666
G1 X320.977 Y138.571 E21.67501
G1 X320.977 Y137.610 E21.81206
G1 X322.557 Y139.189 E22.13041
G1 X322.557 Y138.228 E22.26746
G1 X320.977 Y136.648 E22.58581
G1 X320.977 Y135.686 E22.72286
G1 X322.557 Y137.266 E23.04121
G1 X322.557 Y136.304 E23.17826
G1 X320.977 Y134.724 E23.49661
G1 X320.977 Y133.763 E23.63366
G1 X322.557 Y135.342 E23.95201
G1 X322.557 Y134.381 E24.08906
G1 X320.977 Y132.801 E24.40741
G1 X320.977 Y131.839 E24.54446
G1 X322.557 Y133.419 E24.86281
G1 X322.557 Y132.457 E24.99986
G1 X320.977 Y130.878 E25.31821
G1 X320.977 Y129.916 E25.45526
G1 X322.557 Y131.495 E25.77361
G1 X322.557 Y130.534 E25.91066
G1 X320.977 Y128.954 E26.22900
G1 X320.977 Y127.992 E26.36606
G1 X322.557 Y129.572 E26.68440
G1 X322.557 Y128.610 E26.82145
G1 X320.977 Y127.031 E27.13980
G1 X320.977 Y126.069 E27.27685
G1 X322.557 Y127.649 E27.59520
G1 X322.557 Y126.687 E27.73225
G1 X320.977 Y125.107 E28.05060
G1 X320.977 Y124.145 E28.18765
G1 X322.557 Y125.725 E28.50599
G1 X322.557 Y124.763 E28.64305
