; generated by Slic3r 1.3.0 on 2019-05-03 at 16:49:10

; external perimeters extrusion width = 0.44mm (0.00mm^3/s)
; perimeters extrusion width = 0.56mm (2.07mm^3/s)
; infill extrusion width = 0.50mm (1.83mm^3/s)
; solid infill extrusion width = 0.56mm (0.00mm^3/s)
; top infill extrusion width = 0.56mm (1.55mm^3/s)
; support material extrusion width = 0.44mm (1.59mm^3/s)

; external perimeters extrusion width = 0.44mm (0.00mm^3/s)
; perimeters extrusion width = 0.56mm (2.07mm^3/s)
; infill extrusion width = 0.50mm (1.83mm^3/s)
; solid infill extrusion width = 0.56mm (0.00mm^3/s)
; top infill extrusion width = 0.56mm (1.55mm^3/s)
; support material extrusion width = 0.44mm (1.59mm^3/s)

M107
M104 S215 T0 ; set temperature
M104 S215 T1 ; set temperature
G28 ; home all axes
G1 Z5 F5000 ; lift nozzle

; Filament gcode

; Filament gcode

M109 S215 T0 ; set temperature and wait for it to be reached
M109 S215 T1 ; set temperature and wait for it to be reached
G21 ; set units to millimeters
G90 ; use absolute coordinates
M82 ; use absolute distances for extrusion
G92 E0
T0
G92 E0
G1 Z0.200 F1200.000
G1 E-10.00000 F2400.00000
G92 E0
T1
G92 E0
G1 E-2.00000 F2400.00000
G92 E0
G1 X68.978 Y113.965 F1200.000
G1 E2.00000 F2400.00000
G1 F1200
G1 X61.436 Y113.965 E2.24901
G1 X61.436 Y114.368 E2.26233
G1 X68.013 Y114.368 E2.47948
G1 X67.452 Y114.772 E2.50229
G1 X61.436 Y114.772 E2.70092
G1 X61.436 Y115.175 E2.71424
G1 X67.059 Y115.175 E2.89990
G1 X66.972 Y115.266 E2.90407
G1 X66.761 Y115.579 E2.91652
G1 X61.436 Y115.579 E3.09233
G1 X61.436 Y115.982 E3.10565
G1 X66.525 Y115.982 E3.27368
G1 X66.343 Y116.386 E3.28830
G1 X61.436 Y116.386 E3.45031
G1 X61.436 Y116.789 E3.46363
G1 X66.231 Y116.789 E3.62194
G1 X66.160 Y117.064 E3.63131
G1 X66.149 Y117.193 E3.63558
G1 X61.436 Y117.193 E3.79117
G1 X61.436 Y117.596 E3.80450
G1 X66.114 Y117.596 E3.95895
G1 X66.080 Y118.000 E3.97232
G1 X61.436 Y118.000 E4.12565
G1 X61.436 Y118.403 E4.13897
G1 X66.046 Y118.403 E4.29116
G1 X66.011 Y118.807 E4.30453
G1 X61.436 Y118.807 E4.45558
G1 E2.45558 F2400.00000
G92 E0
G1 X73.981 Y118.807 F1200.000
G1 E2.00000 F2400.00000
G1 F1200
G1 X126.011 Y118.807 E3.71789
G1 X126.046 Y118.403 E3.73126
G1 X73.964 Y118.403 E5.45085
G1 X73.947 Y118.000 E5.46419
G1 X126.080 Y118.000 E7.18548
G1 X126.114 Y117.596 E7.19885
G1 X73.930 Y117.596 E8.92184
G1 X73.922 Y117.416 E8.92779
G1 X73.884 Y117.193 E8.93528
G1 X126.149 Y117.193 E10.66092
G1 X126.160 Y117.064 E10.66519
G1 X126.231 Y116.789 E10.67456
G1 X73.815 Y116.789 E12.40521
G1 X73.681 Y116.386 E12.41925
G1 X126.343 Y116.386 E14.15800
G1 X126.525 Y115.982 E14.17262
G1 X73.512 Y115.982 E15.92298
G1 X73.286 Y115.579 E15.93824
G1 X126.761 Y115.579 E17.70383
G1 X126.972 Y115.266 E17.71628
G1 X127.059 Y115.175 E17.72045
G1 X72.972 Y115.175 E19.50628
G1 X72.844 Y115.017 E19.51300
G1 X72.565 Y114.772 E19.52525
G1 X127.452 Y114.772 E21.33746
G1 X128.013 Y114.368 E21.36027
G1 X72.004 Y114.368 E23.20952
G1 X71.780 Y114.230 E23.21822
G1 X71.164 Y113.983 E23.24014
G1 X71.081 Y113.965 E23.24294
G1 X128.978 Y113.965 E25.15454
G1 E23.15454 F2400.00000
G92 E0
G1 X133.981 Y118.807 F1200.000
G1 E2.00000 F2400.00000
G1 F1200
G1 X138.599 Y118.807 E2.15248
G1 X138.599 Y118.403 E2.16580
G1 X133.964 Y118.403 E2.31885
G1 X133.947 Y118.000 E2.33218
G1 X138.599 Y118.000 E2.48580
G1 X138.599 Y117.596 E2.49912
G1 X133.930 Y117.596 E2.65330
G1 X133.922 Y117.416 E2.65925
G1 X133.884 Y117.193 E2.66673
G1 X138.599 Y117.193 E2.82243
G1 X138.599 Y116.789 E2.83575
G1 X133.815 Y116.789 E2.99373
G1 X133.681 Y116.386 E3.00776
G1 X138.599 Y116.386 E3.17015
G1 X138.599 Y115.982 E3.18347
G1 X133.512 Y115.982 E3.35145
G1 X133.286 Y115.579 E3.36671
G1 X138.599 Y115.579 E3.54213
G1 X138.599 Y115.175 E3.55546
G1 X132.972 Y115.175 E3.74126
G1 X132.844 Y115.017 E3.74798
G1 X132.565 Y114.772 E3.76023
G1 X138.599 Y114.772 E3.95946
G1 X138.599 Y114.368 E3.97278
G1 X132.004 Y114.368 E4.19053
G1 X131.780 Y114.230 E4.19923
G1 X131.164 Y113.983 E4.22115
G1 X131.081 Y113.965 E4.22395
G1 X138.599 Y113.965 E4.47218
G1 X138.599 Y113.561 E4.48550
G1 X61.436 Y113.561 E7.03322
G1 X61.436 Y113.158 E7.04655
G1 X138.599 Y113.158 E9.59426
G1 X138.599 Y112.754 E9.60759
G1 X61.436 Y112.754 E12.15531
G1 X61.436 Y112.351 E12.16863
G1 X138.599 Y112.351 E14.71635
G1 X138.599 Y111.947 E14.72967
G1 X61.436 Y111.947 E17.27739
G1 X61.436 Y111.544 E17.29071
G1 X138.599 Y111.544 E19.83843
G1 X138.599 Y111.140 E19.85175
G1 X61.436 Y111.140 E22.39947
G1 X61.436 Y110.736 E22.41280
G1 X138.599 Y110.736 E24.96051
G1 X138.599 Y110.333 E24.97384
G1 X61.436 Y110.333 E27.52156
G1 X61.436 Y109.929 E27.53488
G1 X138.599 Y109.929 E30.08260
G1 X138.599 Y109.526 E30.09592
G1 X61.436 Y109.526 E32.64364
G1 X61.436 Y109.122 E32.65696
G1 X138.599 Y109.122 E35.20468
G1 X138.599 Y108.719 E35.21800
G1 X61.436 Y108.719 E37.76572
G1 X61.436 Y108.315 E37.77904
G1 X138.599 Y108.315 E40.32676
G1 X138.599 Y107.912 E40.34009
G1 X61.436 Y107.912 E42.88780
G1 X61.436 Y107.508 E42.90113
G1 X138.599 Y107.508 E45.44885
G1 X138.599 Y107.105 E45.46217
G1 X61.436 Y107.105 E48.00989
G1 X61.436 Y106.701 E48.02321
G1 X138.599 Y106.701 E50.57093
G1 X138.599 Y106.298 E50.58425
G1 X61.436 Y106.298 E53.13197
G1 X61.436 Y105.894 E53.14529
G1 X138.599 Y105.894 E55.69301
G1 X138.599 Y105.491 E55.70634
G1 X61.436 Y105.491 E58.25405
G1 X61.436 Y105.087 E58.26738
G1 X138.599 Y105.087 E60.81510
G1 X138.599 Y104.684 E60.82842
G1 X61.436 Y104.684 E63.37614
G1 X61.436 Y104.280 E63.38946
G1 X138.599 Y104.280 E65.93718
G1 X138.599 Y103.877 E65.95050
G1 X61.436 Y103.877 E68.49822
G1 X61.436 Y103.473 E68.51154
G1 X138.599 Y103.473 E71.05926
G1 X138.599 Y103.070 E71.07258
G1 X61.436 Y103.070 E73.62030
G1 X61.438 Y102.666 E73.63363
G1 X138.598 Y102.666 E76.18126
G1 X138.566 Y102.262 E76.19462
G1 X61.469 Y102.262 E78.74015
G1 X61.501 Y101.859 E78.75352
G1 X138.534 Y101.859 E81.29695
G1 X138.451 Y101.455 E81.31056
G1 X61.584 Y101.455 E83.84851
G1 X61.681 Y101.052 E83.86221
G1 X138.355 Y101.052 E86.39376
G1 X138.305 Y100.845 E86.40078
G1 X138.223 Y100.648 E86.40781
G1 X61.812 Y100.648 E88.93070
G1 X61.979 Y100.245 E88.94512
G1 X138.056 Y100.245 E91.45698
G1 X137.939 Y99.963 E91.46705
G1 X137.865 Y99.841 E91.47176
G1 X62.171 Y99.841 E93.97098
G1 X62.418 Y99.438 E93.98661
G1 X137.618 Y99.438 E96.46950
G1 X137.441 Y99.149 E96.48069
G1 X137.343 Y99.034 E96.48567
G1 X62.693 Y99.034 E98.95041
G1 X63.037 Y98.631 E98.96793
G1 X136.998 Y98.631 E101.40991
G1 X136.820 Y98.423 E101.41894
G1 X136.592 Y98.227 E101.42888
G1 X63.444 Y98.227 E103.84401
G1 X63.916 Y97.824 E103.86453
G1 X136.119 Y97.824 E106.24846
G1 X135.470 Y97.420 E106.27369
G1 X64.565 Y97.420 E108.61478
G1 X64.755 Y97.304 E108.62214
G1 X65.448 Y97.017 E108.64691
G1 X134.587 Y97.017 E110.92968
G1 X134.398 Y96.938 E110.93644
G1 X133.470 Y96.715 E110.96796
G1 X132.170 Y96.613 E111.01102
G1 Z0.200 F1200.000
G1 E101.01102 F2400.00000
G92 E0
T0
G92 E0
G1 X125.976 Y116.193 F1200.000
G1 E10.00000 F2400.00000
G1 F1200
G1 X73.946 Y116.193 E11.71789
G1 X73.929 Y116.596 E11.73121
G1 X126.010 Y116.596 E13.45080
G1 X126.044 Y116.999 E13.46415
G1 X73.911 Y116.999 E15.18544
G1 X73.894 Y117.402 E15.19875
G1 X126.079 Y117.402 E16.92174
G1 X126.113 Y117.805 E16.93509
G1 X73.849 Y117.805 E18.66071
G1 X73.780 Y118.208 E18.67421
G1 X126.195 Y118.208 E20.40482
G1 X126.306 Y118.611 E20.41862
G1 X73.647 Y118.611 E22.15729
G1 X73.549 Y118.887 E22.16695
G1 X73.478 Y119.014 E22.17175
G1 X126.488 Y119.014 E23.92199
G1 X126.565 Y119.184 E23.92814
G1 X126.722 Y119.417 E23.93743
G1 X73.253 Y119.417 E25.70284
G1 X72.940 Y119.820 E25.71968
G1 X127.019 Y119.820 E27.50522
G1 X127.409 Y120.223 E27.52373
G1 X72.536 Y120.223 E29.33549
G1 X72.310 Y120.422 E29.34544
G1 X71.979 Y120.626 E29.35828
G1 X127.965 Y120.626 E31.20679
G1 X128.523 Y120.907 E31.22741
G1 X128.921 Y121.029 E31.24115
G1 X71.077 Y121.029 E33.15100
G1 E31.15100 F2400.00000
G92 E0
G1 X65.976 Y116.193 F1200.000
G1 E2.00000 F2400.00000
G1 F1200
G1 X61.401 Y116.193 E2.15105
G1 X61.401 Y116.596 E2.16436
G1 X66.010 Y116.596 E2.31655
G1 X66.044 Y116.999 E2.32990
G1 X61.401 Y116.999 E2.48322
G1 X61.401 Y117.402 E2.49652
G1 X66.079 Y117.402 E2.65097
G1 X66.113 Y117.805 E2.66432
G1 X61.401 Y117.805 E2.81991
G1 X61.401 Y118.208 E2.83321
G1 X66.195 Y118.208 E2.99150
G1 X66.306 Y118.611 E3.00530
G1 X61.401 Y118.611 E3.16726
G1 X61.401 Y119.014 E3.18056
G1 X66.488 Y119.014 E3.34854
G1 X66.565 Y119.184 E3.35469
G1 X66.722 Y119.417 E3.36398
G1 X61.401 Y119.417 E3.53969
G1 X61.401 Y119.820 E3.55299
G1 X67.019 Y119.820 E3.73850
G1 X67.409 Y120.223 E3.75701
G1 X61.401 Y120.223 E3.95539
G1 X61.401 Y120.626 E3.96870
G1 X67.965 Y120.626 E4.18544
G1 X68.523 Y120.907 E4.20605
G1 X68.921 Y121.029 E4.21979
G1 X61.401 Y121.029 E4.46808
G1 E2.46808 F2400.00000
G92 E0
G1 X67.438 Y138.356 F1200.000
G1 E2.00000 F2400.00000
G1 F1200
G1 X132.526 Y138.356 E4.14901
G1 X133.434 Y138.285 E4.17909
G1 X134.363 Y138.062 E4.21062
G1 X134.625 Y137.953 E4.21999
G1 X65.340 Y137.953 E6.50759
G1 X64.720 Y137.696 E6.52975
G1 X64.481 Y137.550 E6.53898
G1 X135.483 Y137.550 E8.88328
G1 X136.118 Y137.147 E8.90809
G1 X63.847 Y137.147 E11.29428
G1 X63.375 Y136.744 E11.31477
G1 X136.589 Y136.744 E13.73211
G1 X136.785 Y136.577 E13.74060
G1 X136.986 Y136.341 E13.75084
G1 X62.978 Y136.341 E16.19441
G1 X62.634 Y135.938 E16.21190
G1 X137.331 Y135.938 E18.67819
G1 X137.405 Y135.851 E18.68197
G1 X137.599 Y135.535 E18.69420
G1 X62.366 Y135.535 E21.17819
G1 X62.119 Y135.132 E21.19379
G1 X137.846 Y135.132 E23.69408
G1 X137.904 Y135.037 E23.69777
G1 X138.031 Y134.729 E23.70876
G1 X61.933 Y134.729 E26.22132
G1 X61.766 Y134.326 E26.23573
G1 X138.198 Y134.326 E28.75931
G1 X138.269 Y134.155 E28.76544
G1 X138.325 Y133.923 E28.77330
G1 X61.640 Y133.923 E31.30524
G1 X61.543 Y133.520 E31.31892
G1 X138.422 Y133.520 E33.85725
G1 X138.492 Y133.226 E33.86724
G1 X138.501 Y133.117 E33.87084
G1 X61.464 Y133.117 E36.41440
G1 X61.432 Y132.715 E36.42775
G1 X138.532 Y132.715 E38.97340
G1 X138.564 Y132.312 E38.98674
G1 X61.401 Y132.312 E41.53446
G1 X61.401 Y131.909 E41.54777
G1 X138.564 Y131.909 E44.09549
G1 X138.564 Y131.506 E44.10879
G1 X61.401 Y131.506 E46.65651
G1 X61.401 Y131.103 E46.66981
G1 X138.564 Y131.103 E49.21753
G1 X138.564 Y130.700 E49.23084
G1 X61.401 Y130.700 E51.77855
G1 X61.401 Y130.297 E51.79186
G1 X138.564 Y130.297 E54.33958
G1 X138.564 Y129.894 E54.35288
G1 X61.401 Y129.894 E56.90060
G1 X61.401 Y129.491 E56.91391
G1 X138.564 Y129.491 E59.46162
G1 X138.564 Y129.088 E59.47493
G1 X61.401 Y129.088 E62.02265
G1 X61.401 Y128.685 E62.03595
G1 X138.564 Y128.685 E64.58367
G1 X138.564 Y128.282 E64.59697
G1 X61.401 Y128.282 E67.14469
G1 X61.401 Y127.879 E67.15800
G1 X138.564 Y127.879 E69.70572
G1 X138.564 Y127.476 E69.71902
G1 X61.401 Y127.476 E72.26674
G1 X61.401 Y127.073 E72.28004
G1 X138.564 Y127.073 E74.82776
G1 X138.564 Y126.670 E74.84107
G1 X61.401 Y126.670 E77.38879
G1 X61.401 Y126.267 E77.40209
G1 X138.564 Y126.267 E79.94981
G1 X138.564 Y125.864 E79.96311
G1 X61.401 Y125.864 E82.51083
G1 X61.401 Y125.461 E82.52414
G1 X138.564 Y125.461 E85.07185
G1 X138.564 Y125.058 E85.08516
G1 X61.401 Y125.058 E87.63288
G1 X61.401 Y124.655 E87.64618
G1 X138.564 Y124.655 E90.19390
G1 X138.564 Y124.252 E90.20720
G1 X61.401 Y124.252 E92.75492
G1 X61.401 Y123.849 E92.76823
G1 X138.564 Y123.849 E95.31595
G1 X138.564 Y123.446 E95.32925
G1 X61.401 Y123.446 E97.87697
G1 X61.401 Y123.043 E97.89027
G1 X138.564 Y123.043 E100.43799
G1 X138.564 Y122.640 E100.45130
G1 X61.401 Y122.640 E102.99902
G1 X61.401 Y122.238 E103.01232
G1 X138.564 Y122.238 E105.56004
G1 X138.564 Y121.835 E105.57334
G1 X61.401 Y121.835 E108.12106
G1 X61.401 Y121.432 E108.13437
G1 X138.564 Y121.432 E110.68208
G1 X138.564 Y121.029 E110.69539
G1 X131.077 Y121.029 E110.94259
G1 X131.745 Y120.770 E110.96624
G1 X131.979 Y120.626 E110.97532
G1 X138.564 Y120.626 E111.19274
G1 X138.564 Y120.223 E111.20604
G1 X132.536 Y120.223 E111.40506
G1 X132.808 Y119.983 E111.41703
G1 X132.940 Y119.820 E111.42397
G1 X138.564 Y119.820 E111.60964
G1 X138.564 Y119.417 E111.62294
G1 X133.253 Y119.417 E111.79828
G1 X133.478 Y119.014 E111.81352
G1 X138.564 Y119.014 E111.98143
G1 X138.564 Y118.611 E111.99474
G1 X133.647 Y118.611 E112.15708
G1 X133.780 Y118.208 E112.17109
G1 X138.564 Y118.208 E112.32905
G1 X138.564 Y117.805 E112.34236
G1 X133.849 Y117.805 E112.49804
G1 X133.887 Y117.584 E112.50545
G1 X133.894 Y117.402 E112.51146
G1 X138.564 Y117.402 E112.66563
G1 X138.564 Y116.999 E112.67894
G1 X133.911 Y116.999 E112.83255
G1 X133.929 Y116.596 E112.84586
G1 X138.564 Y116.596 E112.99891
G1 X138.564 Y116.193 E113.01221
G1 X133.946 Y116.193 E113.16469
G1 X138.564 Y116.193 E113.31717
M104 S210 T0 ; set temperature
M104 S210 T1 ; set temperature
G1 Z0.800 F1200.000
G1 E103.31717 F2400.00000
G92 E0
T1
G92 E0
G1 X132.608 Y107.223 F1200.000
G1 E10.00000 F2400.00000

G1 F1200
G1 X132.108 Y107.478 E10.02933
G1 X131.588 Y107.561 E10.05681
G1 X68.482 Y107.561 E13.35377
G1 X68.186 Y107.537 E13.36932
G1 X67.696 Y107.379 E13.39619
G1 X67.403 Y107.202 E13.41409
G1 X67.146 Y106.983 E13.43171
G1 X66.838 Y106.558 E13.45917
G1 X66.696 Y106.217 E13.47848
G1 X66.619 Y105.733 E13.50407
G1 X66.619 Y103.655 E13.61264
G1 X66.702 Y103.135 E13.64012
G1 X66.973 Y102.603 E13.67133
G1 X67.395 Y102.181 E13.70254
G1 X67.928 Y101.909 E13.73375
G1 X68.447 Y101.827 E13.76123
G1 X131.588 Y101.827 E17.06004
G1 X132.108 Y101.909 E17.08752
G1 X132.640 Y102.181 E17.11873
G1 X133.063 Y102.603 E17.14994
G1 X133.334 Y103.135 E17.18115
G1 X133.416 Y103.655 E17.20863
G1 X133.416 Y105.697 E17.31535
G1 X133.393 Y105.995 E17.33095
G1 X133.219 Y106.529 E17.36028
G1 X132.889 Y106.983 E17.38962
G1 X132.654 Y107.184 E17.40579

G1 X132.421 Y106.944 F1200.000

G1 F1200
G1 X132.003 Y107.157 E17.43029
G1 X131.562 Y107.226 E17.45362
G1 X68.496 Y107.226 E20.74853
G1 X68.251 Y107.207 E20.76135
G1 X67.836 Y107.073 E20.78415
G1 X67.599 Y106.930 E20.79859
G1 X67.394 Y106.755 E20.81271
G1 X67.131 Y106.394 E20.83603
G1 X67.020 Y106.125 E20.85120
G1 X66.954 Y105.707 E20.87336
G1 X66.954 Y103.681 E20.97918
G1 X67.023 Y103.240 E21.00252
G1 X67.247 Y102.802 E21.02820
G1 X67.594 Y102.454 E21.05388
G1 X68.032 Y102.231 E21.07956
G1 X68.473 Y102.161 E21.10290
G1 X131.562 Y102.161 E24.39897
G1 X132.003 Y102.231 E24.42230
G1 X132.441 Y102.454 E24.44798
G1 X132.789 Y102.802 E24.47366
G1 X133.012 Y103.240 E24.49935
G1 X133.082 Y103.681 E24.52268
G1 X133.082 Y105.684 E24.62734
G1 X133.063 Y105.929 E24.64019
G1 X132.918 Y106.376 E24.66469
G1 X132.642 Y106.755 E24.68919
G1 X132.467 Y106.905 E24.70123

G1 X132.229 Y106.655 F1200.000

G1 F1200
G1 X131.896 Y106.825 E24.72076
G1 X131.535 Y106.882 E24.73983
G1 X68.509 Y106.882 E28.03262
G1 X68.318 Y106.867 E28.04261
G1 X67.979 Y106.758 E28.06123
G1 X67.801 Y106.650 E28.07211
G1 X67.648 Y106.520 E28.08261
G1 X67.433 Y106.224 E28.10168
G1 X67.354 Y106.031 E28.11260
G1 X67.298 Y105.680 E28.13121
G1 X67.298 Y103.708 E28.23420
G1 X67.355 Y103.348 E28.25328
G1 X67.529 Y103.007 E28.27326
G1 X67.799 Y102.736 E28.29325
G1 X68.140 Y102.563 E28.31324
G1 X68.500 Y102.505 E28.33231
G1 X131.535 Y102.505 E31.62554
G1 X131.896 Y102.563 E31.64462
G1 X132.236 Y102.736 E31.66460
G1 X132.507 Y103.007 E31.68459
G1 X132.681 Y103.348 E31.70458
G1 X132.738 Y103.708 E31.72365
G1 X132.738 Y105.671 E31.82619
G1 X132.723 Y105.862 E31.83620
G1 X132.607 Y106.217 E31.85572
G1 X132.388 Y106.520 E31.87525
G1 X132.274 Y106.616 E31.88304

G1 E29.88304 F2400.00000
G92 E0
G1 X135.830 Y116.827 F1200.000
G1 E2.00000 F2400.00000

G1 F1200
G1 X135.729 Y116.238 E2.03121
G1 X135.395 Y115.295 E2.08350
G1 X134.907 Y114.421 E2.13580
G1 X134.278 Y113.642 E2.18810
G1 X133.527 Y112.981 E2.24039
G1 X132.675 Y112.456 E2.29269
G1 X131.746 Y112.083 E2.34498
G1 X130.767 Y111.872 E2.39728
G1 X129.767 Y111.829 E2.44957
G1 X128.774 Y111.956 E2.50187
G1 X127.817 Y112.249 E2.55417
G1 X126.924 Y112.700 E2.60646
G1 X126.119 Y113.295 E2.65876
G1 X125.426 Y114.018 E2.71105
G1 X124.866 Y114.847 E2.76335
G1 X124.453 Y115.759 E2.81565
G1 X124.201 Y116.728 E2.86794
G1 X124.193 Y116.827 E2.87314
