; generated by Slic3r 1.3.0 on 2019-05-03 at 10:38:42

; external perimeters extrusion width = 0.44mm (0.00mm^3/s)
; perimeters extrusion width = 0.56mm (5.17mm^3/s)
; infill extrusion width = 0.50mm (4.57mm^3/s)
; solid infill extrusion width = 0.56mm (0.00mm^3/s)
; top infill extrusion width = 0.56mm (1.55mm^3/s)
; support material extrusion width = 0.44mm (4.76mm^3/s)

; external perimeters extrusion width = 0.44mm (0.00mm^3/s)
; perimeters extrusion width = 0.56mm (5.17mm^3/s)
; infill extrusion width = 0.50mm (4.57mm^3/s)
; solid infill extrusion width = 0.56mm (0.00mm^3/s)
; top infill extrusion width = 0.56mm (1.55mm^3/s)
; support material extrusion width = 0.44mm (4.76mm^3/s)

M107
M104 S215 T0 ; set temperature
M104 S215 T1 ; set temperature
G28 ; home all axes
G1 Z5 F5000 ; lift nozzle

; Filament gcode

; Filament gcode

M109 S215 T0 ; set temperature and wait for it to be reached
M109 S215 T1 ; set temperature and wait for it to be reached
G21 ; set units to millimeters
G90 ; use absolute coordinates
M82 ; use absolute distances for extrusion
G92 E0
T0
G92 E0
G1 Z0.200 F3000.000
G1 E-10.00000 F2400.00000
G92 E0
T1
G92 E0
G1 E-2.00000 F2400.00000
G92 E0
G1 X39.220 Y108.919 F3000.000
G1 E2.00000 F2400.00000
G1 F1200
G1 X39.562 Y108.875 E2.01141
G1 X40.595 Y108.919 E2.04555
G1 X159.220 Y108.919 E5.96220
G1 X158.063 Y109.067 E6.00071
G1 X157.248 Y109.317 E6.02886
G1 X42.698 Y109.317 E9.81099
G1 X43.688 Y109.715 E9.84621
G1 X156.211 Y109.715 E13.56143
G1 X155.422 Y110.112 E13.59060
G1 X44.426 Y110.112 E17.25539
G1 X45.072 Y110.510 E17.28044
G1 X154.835 Y110.510 E20.90450
G1 X154.297 Y110.908 E20.92659
G1 X45.575 Y110.908 E24.51630
G1 X46.027 Y111.306 E24.53618
G1 X153.844 Y111.306 E28.09601
G1 X153.463 Y111.704 E28.11420
G1 X46.449 Y111.704 E31.64751
G1 X46.771 Y112.101 E31.66439
G1 X153.082 Y112.101 E35.17450
G1 X153.005 Y112.182 E35.17817
G1 X152.790 Y112.499 E35.19082
G1 X47.092 Y112.499 E38.68071
G1 X47.327 Y112.790 E38.69305
G1 X47.386 Y112.897 E38.69709
G1 X152.521 Y112.897 E42.16837
G1 X152.253 Y113.295 E42.18423
G1 X47.608 Y113.295 E45.63929
G1 X47.831 Y113.692 E45.65434
G1 X152.042 Y113.692 E49.09510
G1 X151.862 Y114.090 E49.10951
G1 X48.053 Y114.090 E52.53700
G1 X48.197 Y114.488 E52.55098
G1 X151.682 Y114.488 E55.96776
G1 X151.516 Y114.886 E55.98198
G1 X48.338 Y114.886 E59.38865
G1 X48.479 Y115.283 E59.40258
G1 X151.413 Y115.283 E62.80119
G1 X151.309 Y115.681 E62.81476
G1 X48.593 Y115.681 E66.20618
G1 X48.661 Y116.079 E66.21951
G1 X151.206 Y116.079 E69.60526
G1 X151.154 Y116.275 E69.61196
G1 X151.137 Y116.477 E69.61863
G1 X48.729 Y116.477 E72.99988
G1 X48.797 Y116.874 E73.01320
G1 X151.103 Y116.874 E76.39108
G1 X151.070 Y117.272 E76.40426
G1 X48.837 Y117.272 E79.77972
G1 X48.853 Y117.670 E79.79286
G1 X151.036 Y117.670 E83.16665
G1 X151.002 Y118.068 E83.17983
G1 X48.870 Y118.068 E86.55194
G1 X48.887 Y118.466 E86.56508
G1 X150.968 Y118.466 E89.93551
G1 X150.934 Y118.863 E89.94869
G1 X48.904 Y118.863 E93.31745
G1 E91.31745 F2400.00000
G92 E0
G1 X23.859 Y118.863 F3000.000
G1 E2.00000 F2400.00000
G1 F1200
G1 X30.934 Y118.863 E2.23360
G1 X30.968 Y118.466 E2.24678
G1 X23.859 Y118.466 E2.48149
G1 X23.859 Y118.068 E2.49463
G1 X31.002 Y118.068 E2.73046
G1 X31.036 Y117.670 E2.74364
G1 X23.859 Y117.670 E2.98059
G1 X23.859 Y117.272 E2.99372
G1 X31.070 Y117.272 E3.23179
G1 X31.103 Y116.874 E3.24497
G1 X23.859 Y116.874 E3.48416
G1 X23.859 Y116.477 E3.49729
G1 X31.137 Y116.477 E3.73759
G1 X31.154 Y116.275 E3.74427
G1 X31.206 Y116.079 E3.75097
G1 X23.859 Y116.079 E3.99352
G1 X23.859 Y115.681 E4.00666
G1 X31.309 Y115.681 E4.25263
G1 X31.413 Y115.283 E4.26620
G1 X23.859 Y115.283 E4.51560
G1 X23.859 Y114.886 E4.52873
G1 X31.516 Y114.886 E4.78155
G1 X31.682 Y114.488 E4.79578
G1 X23.859 Y114.488 E5.05406
G1 X23.859 Y114.090 E5.06720
G1 X31.862 Y114.090 E5.33142
G1 X32.042 Y113.692 E5.34583
G1 X23.859 Y113.692 E5.61599
G1 X23.859 Y113.295 E5.62913
G1 X32.253 Y113.295 E5.90626
G1 X32.521 Y112.897 E5.92211
G1 X23.859 Y112.897 E6.20811
G1 X23.859 Y112.499 E6.22124
G1 X32.790 Y112.499 E6.51613
G1 X33.005 Y112.182 E6.52878
G1 X33.082 Y112.101 E6.53245
G1 X23.859 Y112.101 E6.83696
G1 X23.859 Y111.704 E6.85009
G1 X33.463 Y111.704 E7.16718
G1 X33.844 Y111.306 E7.18537
G1 X23.859 Y111.306 E7.51505
G1 X23.859 Y110.908 E7.52819
G1 X34.297 Y110.908 E7.87282
G1 X34.835 Y110.510 E7.89490
G1 X23.859 Y110.510 E8.25729
G1 X23.859 Y110.112 E8.27043
G1 X35.422 Y110.112 E8.65220
G1 X36.211 Y109.715 E8.68138
G1 X23.859 Y109.715 E9.08920
G1 X23.859 Y109.317 E9.10234
G1 X37.248 Y109.317 E9.54439
G1 X38.063 Y109.067 E9.57253
G1 X39.220 Y108.919 E9.61104
G1 X23.859 Y108.919 E10.11821
G1 X23.859 Y108.521 E10.13134
G1 X176.022 Y108.521 E15.15536
G1 X176.022 Y108.124 E15.16849
G1 X23.859 Y108.124 E20.19251
G1 X23.859 Y107.726 E20.20564
G1 X176.022 Y107.726 E25.22965
G1 X176.022 Y107.328 E25.24279
G1 X23.859 Y107.328 E30.26680
G1 X23.859 Y106.930 E30.27994
G1 X176.022 Y106.930 E35.30395
G1 X176.022 Y106.533 E35.31709
G1 X23.859 Y106.533 E40.34110
G1 X23.859 Y106.135 E40.35424
G1 X176.022 Y106.135 E45.37825
G1 X176.022 Y105.737 E45.39139
G1 X23.859 Y105.737 E50.41540
G1 X23.859 Y105.339 E50.42854
G1 X176.022 Y105.339 E55.45255
G1 X176.022 Y104.942 E55.46568
G1 X23.859 Y104.942 E60.48970
G1 X23.859 Y104.544 E60.50283
G1 X176.022 Y104.544 E65.52685
G1 X176.022 Y104.146 E65.53998
G1 X23.859 Y104.146 E70.56400
G1 X23.859 Y103.748 E70.57713
G1 X176.022 Y103.748 E75.60115
G1 X176.022 Y103.351 E75.61428
G1 X23.859 Y103.351 E80.63830
G1 X23.859 Y102.953 E80.65143
G1 X176.022 Y102.953 E85.67545
G1 X176.022 Y102.555 E85.68858
G1 X23.859 Y102.555 E90.71260
G1 X23.859 Y102.157 E90.72573
G1 X176.022 Y102.157 E95.74975
G1 X176.022 Y101.759 E95.76288
G1 X23.859 Y101.759 E100.78690
G1 X23.859 Y101.362 E100.80003
G1 X176.022 Y101.362 E105.82405
G1 X176.022 Y100.964 E105.83718
G1 X23.859 Y100.964 E110.86120
G1 X23.859 Y100.566 E110.87433
G1 X176.022 Y100.566 E115.89835
G1 X176.022 Y100.168 E115.91148
G1 X23.859 Y100.168 E120.93550
G1 X23.859 Y99.771 E120.94863
G1 X176.022 Y99.771 E125.97264
G1 X176.022 Y99.373 E125.98578
G1 X23.859 Y99.373 E131.00979
G1 X23.859 Y98.975 E131.02293
G1 X176.022 Y98.975 E136.04694
G1 X176.022 Y98.577 E136.06008
G1 X23.859 Y98.577 E141.08409
G1 X23.859 Y98.180 E141.09723
G1 X176.022 Y98.180 E146.12124
G1 X176.022 Y97.782 E146.13438
G1 X23.859 Y97.782 E151.15839
G1 X23.859 Y97.384 E151.17153
G1 X176.022 Y97.384 E156.19554
G1 X176.022 Y96.986 E156.20867
G1 X23.859 Y96.986 E161.23269
G1 X23.859 Y96.589 E161.24582
G1 X176.022 Y96.589 E166.26984
G1 X176.022 Y96.191 E166.28297
G1 X23.859 Y96.191 E171.30699
G1 X23.859 Y95.793 E171.32012
G1 X176.022 Y95.793 E176.34414
G1 X176.022 Y95.395 E176.35727
G1 X23.859 Y95.395 E181.38129
G1 X23.859 Y94.997 E181.39442
G1 X176.022 Y94.997 E186.41844
G1 X176.022 Y94.600 E186.43157
G1 X23.859 Y94.600 E191.45559
G1 X23.859 Y94.202 E191.46872
G1 X176.022 Y94.202 E196.49274
G1 X176.022 Y93.804 E196.50587
G1 X23.859 Y93.804 E201.52989
G1 X23.859 Y93.406 E201.54302
G1 X176.022 Y93.406 E206.56704
G1 X176.022 Y93.009 E206.58017
G1 X23.859 Y93.009 E211.60419
G1 X23.859 Y92.611 E211.61732
G1 X176.022 Y92.611 E216.64134
G1 X176.022 Y92.213 E216.65447
G1 X23.859 Y92.213 E221.67849
G1 X23.859 Y91.815 E221.69162
G1 X176.022 Y91.815 E226.71564
G1 X176.022 Y91.418 E226.72877
G1 X23.859 Y91.418 E231.75278
G1 X23.859 Y91.020 E231.76592
G1 X176.022 Y91.020 E236.78993
G1 X176.022 Y90.622 E236.80307
G1 X23.859 Y90.622 E241.82708
G1 X23.859 Y90.224 E241.84022
G1 X176.022 Y90.224 E246.86423
G1 X176.022 Y89.827 E246.87737
G1 X23.859 Y89.827 E251.90138
G1 X23.859 Y89.429 E251.91452
G1 X176.022 Y89.429 E256.93853
G1 X176.022 Y89.031 E256.95167
G1 X23.859 Y89.031 E261.97568
G1 X23.859 Y88.633 E261.98881
G1 X176.022 Y88.633 E267.01283
G1 X176.022 Y88.236 E267.02596
G1 X23.859 Y88.236 E272.04998
G1 X23.859 Y87.838 E272.06311
G1 X176.022 Y87.838 E277.08713
G1 X175.999 Y87.440 E277.10029
G1 X23.883 Y87.440 E282.12275
G1 X23.914 Y87.042 E282.13592
G1 X175.967 Y87.042 E287.15631
G1 X175.936 Y86.644 E287.16949
G1 X23.945 Y86.644 E292.18781
G1 X23.977 Y86.247 E292.20099
G1 X175.905 Y86.247 E297.21725
G1 X175.889 Y86.048 E297.22383
G1 X175.841 Y85.849 E297.23059
G1 X24.040 Y85.849 E302.24266
G1 X24.136 Y85.451 E302.25617
G1 X175.746 Y85.451 E307.26193
G1 X175.650 Y85.053 E307.27544
G1 X24.231 Y85.053 E312.27490
G1 X24.327 Y84.656 E312.28841
G1 X175.555 Y84.656 E317.28156
G1 X175.442 Y84.258 E317.29521
G1 X24.439 Y84.258 E322.28093
G1 X24.604 Y83.860 E322.29514
G1 X175.278 Y83.860 E327.26998
G1 X175.113 Y83.462 E327.28420
G1 X24.769 Y83.462 E332.24815
G1 X24.933 Y83.065 E332.26237
G1 X174.948 Y83.065 E337.21545
G1 X174.767 Y82.667 E337.22988
G1 X25.115 Y82.667 E342.17099
G1 X25.358 Y82.269 E342.18639
G1 X174.523 Y82.269 E347.11141
G1 X174.279 Y81.871 E347.12682
G1 X25.602 Y81.871 E352.03574
G1 X25.846 Y81.474 E352.05114
G1 X174.036 Y81.474 E356.94397
G1 X173.909 Y81.266 E356.95200
G1 X173.746 Y81.076 E356.96027
G1 X26.136 Y81.076 E361.83397
G1 X26.475 Y80.678 E361.85124
G1 X173.406 Y80.678 E366.70250
G1 X173.066 Y80.280 E366.71977
G1 X26.815 Y80.280 E371.54860
G1 X27.174 Y79.882 E371.56630
G1 X172.707 Y79.882 E376.37141
G1 X172.242 Y79.485 E376.39164
G1 X27.640 Y79.485 E381.16600
G1 X28.105 Y79.087 E381.18622
G1 X171.776 Y79.087 E385.92983
G1 X171.456 Y78.814 E385.94372
G1 X171.253 Y78.689 E385.95160
G1 X28.629 Y78.689 E390.66066
G1 X29.278 Y78.291 E390.68579
G1 X170.604 Y78.291 E395.35199
G1 X169.946 Y77.894 E395.37738
G1 X29.936 Y77.894 E400.00013
G1 X30.896 Y77.496 E400.03444
G1 X168.985 Y77.496 E404.59378
G1 X168.366 Y77.239 E404.61591
G1 X167.778 Y77.098 E404.63589
G1 X32.104 Y77.098 E409.11548
G1 X33.207 Y76.833 E409.15293
G1 X34.896 Y76.700 E409.20889
G1 X164.985 Y76.700 E413.50407
G1 E411.50407 F2400.00000
G92 E0
G1 X159.220 Y108.919 F3000.000
G1 E2.00000 F2400.00000
G1 F1200
G1 X159.562 Y108.875 E2.01141
G1 X160.596 Y108.919 E2.04555
G1 X176.022 Y108.919 E2.55490
G1 X176.022 Y109.317 E2.56803
G1 X162.698 Y109.317 E3.00797
G1 X163.688 Y109.715 E3.04320
G1 X176.022 Y109.715 E3.45045
G1 X176.022 Y110.112 E3.46359
G1 X164.426 Y110.112 E3.84646
G1 X165.072 Y110.510 E3.87151
G1 X176.022 Y110.510 E4.23305
G1 X176.022 Y110.908 E4.24618
G1 X165.575 Y110.908 E4.59112
G1 X166.027 Y111.306 E4.61100
G1 X176.022 Y111.306 E4.94102
G1 X176.022 Y111.704 E4.95415
G1 X166.449 Y111.704 E5.27023
G1 X166.770 Y112.101 E5.28711
G1 X176.022 Y112.101 E5.59258
G1 X176.022 Y112.499 E5.60571
G1 X167.092 Y112.499 E5.90058
G1 X167.327 Y112.790 E5.91292
G1 X167.386 Y112.897 E5.91696
G1 X176.022 Y112.897 E6.20210
G1 X176.022 Y113.295 E6.21523
G1 X167.608 Y113.295 E6.49304
G1 X167.831 Y113.692 E6.50808
G1 X176.022 Y113.692 E6.77855
G1 X176.022 Y114.090 E6.79168
G1 X168.053 Y114.090 E7.05481
G1 X168.197 Y114.488 E7.06878
G1 X176.022 Y114.488 E7.32714
G1 X176.022 Y114.886 E7.34027
G1 X168.338 Y114.886 E7.59399
G1 X168.479 Y115.283 E7.60792
G1 X176.022 Y115.283 E7.85699
G1 X176.022 Y115.681 E7.87012
G1 X168.593 Y115.681 E8.11543
G1 X168.661 Y116.079 E8.12876
G1 X176.022 Y116.079 E8.37182
G1 X176.022 Y116.477 E8.38495
G1 X168.729 Y116.477 E8.62576
G1 X168.797 Y116.874 E8.63908
G1 X176.022 Y116.874 E8.87763
G1 X176.022 Y117.272 E8.89077
G1 X168.837 Y117.272 E9.12802
G1 X168.853 Y117.670 E9.14117
G1 X176.022 Y117.670 E9.37786
G1 X176.022 Y118.068 E9.39100
G1 X168.870 Y118.068 E9.62713
G1 X168.887 Y118.466 E9.64028
G1 X176.022 Y118.466 E9.87586
G1 X176.022 Y118.863 E9.88899
G1 X168.904 Y118.863 E10.12402
G1 Z0.200 F3000.000
G1 E0.12402 F2400.00000
G92 E0
T0
G92 E0
G1 X176.141 Y116.137 F3000.000
G1 E10.00000 F2400.00000
G1 F1200
G1 X169.023 Y116.137 E10.23502
G1 X169.006 Y116.535 E10.24817
G1 X176.141 Y116.535 E10.48375
G1 X176.141 Y116.932 E10.49688
G1 X168.989 Y116.932 E10.73302
G1 X168.972 Y117.330 E10.74616
G1 X176.141 Y117.330 E10.98286
G1 X176.141 Y117.728 E10.99599
G1 X168.955 Y117.728 E11.23325
G1 X168.946 Y117.951 E11.24064
G1 X168.916 Y118.126 E11.24647
G1 X176.141 Y118.126 E11.48503
G1 X176.141 Y118.523 E11.49816
G1 X168.847 Y118.523 E11.73897
G1 X168.779 Y118.921 E11.75229
G1 X176.141 Y118.921 E11.99535
G1 X176.141 Y119.319 E12.00848
G1 X168.711 Y119.319 E12.25379
G1 X168.686 Y119.464 E12.25867
G1 X168.597 Y119.717 E12.26750
G1 X176.141 Y119.717 E12.51657
G1 X176.141 Y120.114 E12.52971
G1 X168.456 Y120.114 E12.78342
G1 X168.316 Y120.512 E12.79735
G1 X176.141 Y120.512 E13.05571
G1 X176.141 Y120.910 E13.06884
G1 X168.171 Y120.910 E13.33197
G1 X167.949 Y121.308 E13.34701
G1 X176.141 Y121.308 E13.61748
G1 X176.141 Y121.705 E13.63061
G1 X167.727 Y121.705 E13.90842
G1 X167.505 Y122.103 E13.92346
G1 X176.141 Y122.103 E14.20860
G1 X176.141 Y122.501 E14.22174
G1 X167.210 Y122.501 E14.51660
G1 X166.889 Y122.899 E14.53348
G1 X176.141 Y122.899 E14.83895
G1 X176.141 Y123.297 E14.85209
G1 X166.568 Y123.297 E15.16816
G1 X166.495 Y123.386 E15.17198
G1 X166.145 Y123.694 E15.18736
G1 X176.141 Y123.694 E15.51738
G1 X176.141 Y124.092 E15.53052
G1 X165.693 Y124.092 E15.87546
G1 X165.360 Y124.385 E15.89012
G1 X165.191 Y124.490 E15.89669
G1 X176.141 Y124.490 E16.25824
G1 X176.141 Y124.888 E16.27137
G1 X164.545 Y124.888 E16.65425
G1 X164.073 Y125.178 E16.67255
G1 X163.806 Y125.285 E16.68203
G1 X176.141 Y125.285 E17.08930
G1 X176.141 Y125.683 E17.10243
G1 X162.816 Y125.683 E17.54237
G1 X162.670 Y125.742 E17.54759
G1 X161.192 Y126.061 E17.59751
G1 X160.713 Y126.081 E17.61333
G1 X176.141 Y126.081 E18.12272
G1 X176.141 Y126.479 E18.13586
G1 X23.978 Y126.479 E23.15987
G1 X23.978 Y126.876 E23.17301
G1 X176.141 Y126.876 E28.19702
G1 X176.141 Y127.274 E28.21016
G1 X23.978 Y127.274 E33.23417
G1 X23.978 Y127.672 E33.24731
G1 X176.141 Y127.672 E38.27132
G1 X176.141 Y128.070 E38.28446
G1 X23.978 Y128.070 E43.30847
G1 X23.978 Y128.467 E43.32160
G1 X176.141 Y128.467 E48.34562
G1 X176.141 Y128.865 E48.35875
G1 X23.978 Y128.865 E53.38277
G1 X23.978 Y129.263 E53.39590
G1 X176.141 Y129.263 E58.41992
G1 X176.141 Y129.661 E58.43305
G1 X23.978 Y129.661 E63.45707
G1 X23.978 Y130.058 E63.47020
G1 X176.141 Y130.058 E68.49422
G1 X176.141 Y130.456 E68.50735
G1 X23.978 Y130.456 E73.53137
G1 X23.978 Y130.854 E73.54450
G1 X176.141 Y130.854 E78.56852
G1 X176.141 Y131.252 E78.58165
G1 X23.978 Y131.252 E83.60567
G1 X23.978 Y131.650 E83.61880
G1 X176.141 Y131.650 E88.64282
G1 X176.141 Y132.047 E88.65595
G1 X23.978 Y132.047 E93.67997
G1 X23.978 Y132.445 E93.69310
G1 X176.141 Y132.445 E98.71712
G1 X176.141 Y132.843 E98.73025
G1 X23.978 Y132.843 E103.75427
G1 X23.978 Y133.241 E103.76740
G1 X176.141 Y133.241 E108.79142
G1 X176.141 Y133.638 E108.80455
G1 X23.978 Y133.638 E113.82856
G1 X23.978 Y134.036 E113.84170
G1 X176.141 Y134.036 E118.86571
G1 X176.141 Y134.434 E118.87885
G1 X23.978 Y134.434 E123.90286
G1 X23.978 Y134.832 E123.91600
G1 X176.141 Y134.832 E128.94001
G1 X176.141 Y135.229 E128.95315
G1 X23.978 Y135.229 E133.97716
G1 X23.978 Y135.627 E133.99030
G1 X176.141 Y135.627 E139.01431
G1 X176.141 Y136.025 E139.02745
G1 X23.978 Y136.025 E144.05146
G1 X23.978 Y136.423 E144.06460
G1 X176.141 Y136.423 E149.08861
G1 X176.141 Y136.820 E149.10174
G1 X23.978 Y136.820 E154.12576
G1 X23.978 Y137.218 E154.13889
G1 X176.141 Y137.218 E159.16291
G1 X176.141 Y137.616 E159.17604
G1 X23.978 Y137.616 E164.20006
G1 X23.978 Y138.014 E164.21319
G1 X176.141 Y138.014 E169.23721
G1 X176.141 Y138.412 E169.25034
G1 X23.978 Y138.412 E174.27436
G1 X23.978 Y138.809 E174.28749
G1 X176.141 Y138.809 E179.31151
G1 X176.141 Y139.207 E179.32464
G1 X23.978 Y139.207 E184.34866
G1 X23.978 Y139.605 E184.36179
G1 X176.141 Y139.605 E189.38581
G1 X176.141 Y140.003 E189.39894
G1 X23.978 Y140.003 E194.42296
G1 X23.978 Y140.400 E194.43609
G1 X176.141 Y140.400 E199.46011
G1 X176.141 Y140.798 E199.47324
G1 X23.978 Y140.798 E204.49726
G1 X23.978 Y141.196 E204.51039
G1 X176.141 Y141.196 E209.53441
G1 X176.141 Y141.594 E209.54754
G1 X23.978 Y141.594 E214.57156
G1 X23.978 Y141.991 E214.58469
G1 X176.141 Y141.991 E219.60870
G1 X176.141 Y142.389 E219.62184
G1 X23.978 Y142.389 E224.64585
G1 X23.978 Y142.787 E224.65899
G1 X176.141 Y142.787 E229.68300
